dist/svg/u1F195.svg

<?xml version="1.0" encoding="UTF-8"?><svg id="a" xmlns="http://www.w3.org/2000/svg" viewBox="0 0 40 40"><g><rect x="3.5" y="3.5" width="33" height="33" rx="8" ry="8" fill="#007ff2"/><g><path d="M14.455,24.396h-1.716l-4.234-6.344v6.344h-1.976V14.697h1.717l4.246,6.37v-6.37h1.963v9.698Z" fill="#fff"/><path d="M15.866,24.396V14.697h5.889v1.729h-3.914v2.274h3.469v1.742h-3.469v2.224h4.123v1.729h-6.098Z" fill="#fff"/><path d="M31.893,24.396h-1.803l-1.753-6.617-1.765,6.617h-1.814l-2.605-9.698h2.037l1.568,6.396,1.679-6.396h1.777l1.679,6.396,1.567-6.396h2.05l-2.617,9.698Z" fill="#fff"/></g></g><rect width="40" height="40" fill="none"/></svg>

<svg id="Layer_1" data-name="Layer 1" xmlns="http://www.w3.org/2000/svg" viewBox="0 0 40 40"><defs><style>.cls-1{fill:#007ff2;}.cls-2{fill:#fff;}.cls-3{fill:none;}</style></defs><rect class="cls-1" x="3.5" y="3.5" width="33" height="33" rx="8"/><path class="cls-2" d="M14.455,24.4H12.739L8.505,18.052V24.4H6.529V14.7H8.246l4.246,6.37V14.7h1.963Z"/><path class="cls-2" d="M15.866,24.4V14.7h5.889v1.73H17.841V18.7H21.31v1.742H17.841v2.224h4.123V24.4Z"/><path class="cls-2" d="M31.893,24.4h-1.8l-1.753-6.618L26.572,24.4H24.758l-2.606-9.7h2.037l1.569,6.4,1.679-6.4h1.777l1.679,6.4,1.567-6.4h2.05Z"/><rect class="cls-3" width="40" height="40"/></svg>
